new/img/icon/startup.svg

<?xml version="1.0" encoding="iso-8859-1"?>
<!-- Generator: Adobe Illustrator 19.0.0, SVG Export Plug-In . SVG Version: 6.00 Build 0)  -->
<svg version="1.1" id="Capa_1" xmlns="http://www.w3.org/2000/svg" xmlns:xlink="http://www.w3.org/1999/xlink" x="0px" y="0px"
	 viewBox="0 0 512 512" style="enable-background:new 0 0 512 512;" xml:space="preserve">
<g>
	
		<linearGradient id="SVGID_1_" gradientUnits="userSpaceOnUse" x1="-43.7408" y1="609.2109" x2="16.0922" y2="609.2109" gradientTransform="matrix(8.5333 0 0 -8.5333 369.1334 5433.2671)">
		<stop  offset="0" style="stop-color:#034E89"/>
		<stop  offset="1" style="stop-color:#00AFC3"/>
	</linearGradient>
	<path style="fill:url(#SVGID_1_);" d="M170.667,426.667v42.667h170.667v-42.667h102.4v-59.733
		c-0.068-48.503-37.035-88.986-85.333-93.431V170.667C358.4,113.749,314.129,0,256,0S153.6,113.749,153.6,170.667v102.835
		c-48.299,4.446-85.265,44.928-85.333,93.431v59.733H170.667z M324.267,452.267H187.733v-25.6h136.533V452.267z M264.533,409.6
		h-17.067v-68.267h17.067V409.6z M426.667,366.933V409.6H358.4V290.603C397.252,294.997,426.615,327.834,426.667,366.933z
		 M170.667,170.667c0-49.271,40.371-153.6,85.333-153.6s85.333,104.329,85.333,153.6V409.6H281.6v-76.8
		c0-4.71-3.823-8.533-8.533-8.533h-34.133c-4.71,0-8.533,3.823-8.533,8.533v76.8h-59.733V170.667z M85.333,409.6v-42.667
		c0.051-39.1,29.414-71.936,68.267-76.331V409.6H85.333z"/>
	
		<linearGradient id="SVGID_2_" gradientUnits="userSpaceOnUse" x1="-43.7408" y1="609.7109" x2="16.0922" y2="609.7109" gradientTransform="matrix(8.5333 0 0 -8.5333 369.1334 5433.2671)">
		<stop  offset="0" style="stop-color:#034E89"/>
		<stop  offset="1" style="stop-color:#00AFC3"/>
	</linearGradient>
	<path style="fill:url(#SVGID_2_);" d="M256,298.667c37.7,0,68.267-30.566,68.267-68.267S293.7,162.133,256,162.133
		S187.733,192.7,187.733,230.4C187.776,268.083,218.317,298.624,256,298.667z M256,179.2c28.279,0,51.2,22.921,51.2,51.2
		s-22.921,51.2-51.2,51.2c-28.279,0-51.2-22.921-51.2-51.2C204.826,202.138,227.738,179.226,256,179.2z"/>
	
		<linearGradient id="SVGID_3_" gradientUnits="userSpaceOnUse" x1="-43.7408" y1="609.7109" x2="16.0922" y2="609.7109" gradientTransform="matrix(8.5333 0 0 -8.5333 369.1334 5433.2671)">
		<stop  offset="0" style="stop-color:#034E89"/>
		<stop  offset="1" style="stop-color:#00AFC3"/>
	</linearGradient>
	<path style="fill:url(#SVGID_3_);" d="M256,264.533c18.85,0,34.133-15.283,34.133-34.133S274.85,196.267,256,196.267
		c-18.85,0-34.133,15.283-34.133,34.133S237.15,264.533,256,264.533z M256,213.333c9.429,0,17.067,7.637,17.067,17.067
		c0,9.429-7.637,17.067-17.067,17.067c-9.429,0-17.067-7.637-17.067-17.067C238.933,220.971,246.571,213.333,256,213.333z"/>
	
		<linearGradient id="SVGID_4_" gradientUnits="userSpaceOnUse" x1="-43.7408" y1="582.7109" x2="16.0922" y2="582.7109" gradientTransform="matrix(8.5333 0 0 -8.5333 369.1334 5433.2671)">
		<stop  offset="0" style="stop-color:#034E89"/>
		<stop  offset="1" style="stop-color:#00AFC3"/>
	</linearGradient>
	<rect x="85.333" y="443.733" style="fill:url(#SVGID_4_);" width="17.067" height="34.133"/>
	
		<linearGradient id="SVGID_5_" gradientUnits="userSpaceOnUse" x1="-43.7408" y1="579.7109" x2="16.0922" y2="579.7109" gradientTransform="matrix(8.5333 0 0 -8.5333 369.1334 5433.2671)">
		<stop  offset="0" style="stop-color:#034E89"/>
		<stop  offset="1" style="stop-color:#00AFC3"/>
	</linearGradient>
	<rect x="119.467" y="460.8" style="fill:url(#SVGID_5_);" width="17.067" height="51.2"/>
	
		<linearGradient id="SVGID_6_" gradientUnits="userSpaceOnUse" x1="-43.7408" y1="582.7109" x2="16.0922" y2="582.7109" gradientTransform="matrix(8.5333 0 0 -8.5333 369.1334 5433.2671)">
		<stop  offset="0" style="stop-color:#034E89"/>
		<stop  offset="1" style="stop-color:#00AFC3"/>
	</linearGradient>
	<rect x="409.6" y="443.733" style="fill:url(#SVGID_6_);" width="17.067" height="34.133"/>
	
		<linearGradient id="SVGID_7_" gradientUnits="userSpaceOnUse" x1="-43.7408" y1="579.7109" x2="16.0922" y2="579.7109" gradientTransform="matrix(8.5333 0 0 -8.5333 369.1334 5433.2671)">
		<stop  offset="0" style="stop-color:#034E89"/>
		<stop  offset="1" style="stop-color:#00AFC3"/>
	</linearGradient>
	<rect x="375.467" y="460.8" style="fill:url(#SVGID_7_);" width="17.067" height="51.2"/>
	
		<linearGradient id="SVGID_8_" gradientUnits="userSpaceOnUse" x1="-43.7408" y1="626.7109" x2="16.0922" y2="626.7109" gradientTransform="matrix(8.5333 0 0 -8.5333 369.1334 5433.2671)">
		<stop  offset="0" style="stop-color:#034E89"/>
		<stop  offset="1" style="stop-color:#00AFC3"/>
	</linearGradient>
	<path style="fill:url(#SVGID_8_);" d="M302.08,102.4c-0.026-23.552-19.115-42.641-42.667-42.667h-6.827
		c-23.552,0.026-42.641,19.115-42.667,42.667v8.533h92.16V102.4z M228.446,93.867c3.627-10.223,13.295-17.05,24.141-17.067h6.827
		c10.846,0.017,20.514,6.844,24.141,17.067H228.446z"/>
	
		<linearGradient id="SVGID_9_" gradientUnits="userSpaceOnUse" x1="-43.7408" y1="591.7109" x2="16.0922" y2="591.7109" gradientTransform="matrix(8.5333 0 0 -8.5333 369.1334 5433.2671)">
		<stop  offset="0" style="stop-color:#034E89"/>
		<stop  offset="1" style="stop-color:#00AFC3"/>
	</linearGradient>
	<rect x="119.467" y="375.467" style="fill:url(#SVGID_9_);" width="17.067" height="17.067"/>
	
		<linearGradient id="SVGID_10_" gradientUnits="userSpaceOnUse" x1="-43.7408" y1="591.7109" x2="16.0922" y2="591.7109" gradientTransform="matrix(8.5333 0 0 -8.5333 369.1334 5433.2671)">
		<stop  offset="0" style="stop-color:#034E89"/>
		<stop  offset="1" style="stop-color:#00AFC3"/>
	</linearGradient>
	<rect x="375.467" y="375.467" style="fill:url(#SVGID_10_);" width="17.067" height="17.067"/>
</g>
<g>
</g>
<g>
</g>
<g>
</g>
<g>
</g>
<g>
</g>
<g>
</g>
<g>
</g>
<g>
</g>
<g>
</g>
<g>
</g>
<g>
</g>
<g>
</g>
<g>
</g>
<g>
</g>
<g>
</g>
</svg>

<svg enable-background="new 0 0 512 512" viewBox="0 0 512 512" xmlns="http://www.w3.org/2000/svg"><g fill="#f15b6f"><path d="m170.7 426.7v42.7h170.7v-42.7h102.4v-59.7c-.1-48.5-37-89-85.3-93.4v-102.9c-.1-57-44.4-170.7-102.5-170.7s-102.4 113.7-102.4 170.7v102.8c-48.3 4.4-85.3 44.9-85.3 93.4v59.7zm153.6 25.6h-136.6v-25.6h136.5zm-59.8-42.7h-17.1v-68.3h17.1zm162.2-42.7v42.7h-68.3v-119c38.9 4.4 68.2 37.2 68.3 76.3zm-256-196.2c0-49.3 40.4-153.6 85.3-153.6s85.3 104.3 85.3 153.6v238.9h-59.7v-76.8c0-4.7-3.8-8.5-8.5-8.5h-34.1c-4.7 0-8.5 3.8-8.5 8.5v76.8h-59.7zm-85.4 238.9v-42.7c.1-39.1 29.4-71.9 68.3-76.3v119z"/><path d="m256 298.7c37.7 0 68.3-30.6 68.3-68.3s-30.6-68.3-68.3-68.3-68.3 30.6-68.3 68.3c.1 37.7 30.6 68.2 68.3 68.3zm0-119.5c28.3 0 51.2 22.9 51.2 51.2s-22.9 51.2-51.2 51.2-51.2-22.9-51.2-51.2 22.9-51.2 51.2-51.2z"/><path d="m256 264.5c18.9 0 34.1-15.3 34.1-34.1s-15.3-34.1-34.1-34.1-34.1 15.3-34.1 34.1 15.2 34.1 34.1 34.1zm0-51.2c9.4 0 17.1 7.6 17.1 17.1 0 9.4-7.6 17.1-17.1 17.1-9.4 0-17.1-7.6-17.1-17.1 0-9.4 7.7-17.1 17.1-17.1z"/><path d="m85.3 443.7h17.1v34.1h-17.1z"/><path d="m119.5 460.8h17.1v51.2h-17.1z"/><path d="m409.6 443.7h17.1v34.1h-17.1z"/><path d="m375.5 460.8h17.1v51.2h-17.1z"/><path d="m302.1 102.4c0-23.6-19.1-42.6-42.7-42.7h-6.8c-23.6 0-42.6 19.1-42.7 42.7v8.5h92.2zm-73.7-8.5c3.6-10.2 13.3-17 24.1-17.1h6.8c10.8 0 20.5 6.8 24.1 17.1z"/><path d="m119.5 375.5h17.1v17.1h-17.1z"/><path d="m375.5 375.5h17.1v17.1h-17.1z"/></g></svg>
